build/svg/cmd/sc_showlicense.svg

<?xml version="1.0" encoding="UTF-8" standalone="no"?>
<svg
   xmlns:dc="http://purl.org/dc/elements/1.1/"
   xmlns:cc="http://creativecommons.org/ns#"
   xmlns:rdf="http://www.w3.org/1999/02/22-rdf-syntax-ns#"
   xmlns:svg="http://www.w3.org/2000/svg"
   xmlns="http://www.w3.org/2000/svg"
   xmlns:sodipodi="http://sodipodi.sourceforge.net/DTD/sodipodi-0.dtd"
   xmlns:inkscape="http://www.inkscape.org/namespaces/inkscape"
   height="16"
   viewBox="0 0 16 16"
   width="16"
   version="1.1"
   id="svg4"
   sodipodi:docname="sc_showlicense.svg"
   inkscape:export-filename="/home/jupiter007/Libreoffice yaru theme fullcolor/build/cmd/sc_showlicense.png"
   inkscape:export-xdpi="95"
   inkscape:export-ydpi="95"
   inkscape:version="0.92.5 (2060ec1f9f, 2020-04-08)">
  <metadata
     id="metadata10">
    <rdf:RDF>
      <cc:Work
         rdf:about="">
        <dc:format>image/svg+xml</dc:format>
        <dc:type
           rdf:resource="http://purl.org/dc/dcmitype/StillImage" />
      </cc:Work>
    </rdf:RDF>
  </metadata>
  <defs
     id="defs8" />
  <sodipodi:namedview
     pagecolor="#ffffff"
     bordercolor="#666666"
     borderopacity="1"
     objecttolerance="10"
     gridtolerance="10"
     guidetolerance="10"
     inkscape:pageopacity="0"
     inkscape:pageshadow="2"
     inkscape:window-width="1920"
     inkscape:window-height="1011"
     id="namedview6"
     showgrid="true"
     inkscape:zoom="29.5"
     inkscape:cx="6.3001516"
     inkscape:cy="8.380835"
     inkscape:window-x="0"
     inkscape:window-y="32"
     inkscape:window-maximized="1"
     inkscape:current-layer="svg4">
    <inkscape:grid
       type="xygrid"
       id="grid817" />
  </sodipodi:namedview>
  <circle
     r="6"
     cy="8"
     cx="8"
     id="circle821"
     style="opacity:0.6;fill:#000000;fill-opacity:1;fill-rule:evenodd;stroke:#000000;stroke-width:2;stroke-linecap:butt;stroke-linejoin:round;stroke-miterlimit:4;stroke-dasharray:none;stroke-opacity:1" />
  <circle
     style="opacity:1;fill:#ffffff;fill-opacity:1;fill-rule:evenodd;stroke:none;stroke-width:2;stroke-linecap:butt;stroke-linejoin:round;stroke-miterlimit:4;stroke-dasharray:none;stroke-opacity:1"
     id="path819"
     cx="8"
     cy="8"
     r="6" />
  <path
     style="opacity:1;fill:#232629;fill-opacity:1;fill-rule:evenodd;stroke:none;stroke-width:2;stroke-linecap:butt;stroke-linejoin:round;stroke-miterlimit:4;stroke-dasharray:none;stroke-opacity:1"
     d="M 8.1523438 4.0019531 A 4 4 0 0 0 6.9648438 4.1367188 A 4 4 0 0 0 4 8 A 4 4 0 0 0 6.9648438 11.863281 A 4 4 0 0 0 11.464844 10 L 10.597656 9.5 A 3 3 0 0 1 7.2226562 10.898438 A 3 3 0 0 1 5 8 A 3 3 0 0 1 7.2226562 5.1015625 A 3 3 0 0 1 10.597656 6.5 L 11.464844 6 A 4 4 0 0 0 8.1523438 4.0019531 z "
     id="path823" />
</svg>

<svg xmlns="http://www.w3.org/2000/svg" height="16" width="16"><circle r="6" cy="8" cx="8" opacity=".6" fill-rule="evenodd" stroke="#000" stroke-width="2" stroke-linejoin="round"/><circle cx="8" cy="8" r="6" fill="#fff" fill-rule="evenodd"/><path d="M8.152 4.002a4 4 0 00-1.187.135A4 4 0 004 8a4 4 0 002.965 3.863 4 4 0 004.5-1.863l-.867-.5a3 3 0 01-3.375 1.398A3 3 0 015 8a3 3 0 012.223-2.898A3 3 0 0110.598 6.5l.867-.5a4 4 0 00-3.313-1.998z" fill="#232629" fill-rule="evenodd"/></svg>
